X: 46
T:Calliope House
R:Jig
C:Dave Richardson
N:Usually played in key of E, so capo at 2nd fret
M:12/8
L:1/8
Q:3/8=120
K:D
|:aaa faa eaa def|g2g fgf e2e edB|AAA A2F A2B d2e|[1 f2f fed e3 efg:
|[2 f2f efe d3 d2A||:dAA fAA eAA fed|Bee e2d efd B2B|
AAA A2F A2B d2e|[1 f2f fed e3 dBA:|[2 f2f efe d3 dfg|]
